X:0757
T:The Little Nabob.
M:2/4
L:1/8
Q:1/4=132
I: :: ||
Z:Jack Campin * www.campin.me.uk * 2009
K:D
aaff|d2 d2|bc'd'b|b2 a2|aa``ff|d2 df|edef|d2 d2:|
edef|g2 e2|f>efg |a2 f2|d'd'a2|bb g2|fedc|d2 d2:|
<end>
<start>
